X:2136
T:Galway Rambler, The
T:Walsh's Favorite
T:Wellington's
O:england
M:C|
E:7
R:reel
K:G
G2 dG eGdG|G2dB AGEF|GFGA BABd|gedB AGEF|G2 dG eGdG|G2dB AGEF|GFGA BABd|gedB AGEF||
g2 bg agab|gabg agef|g2 bg agab|gedB AGED|gabg gabg|gabg a2 ga|(3bag af gbaf|gedB AGED||
